; generated by PrusaSlicer 2.5.1+linux-x64-GTK3 on 2023-04-25 at 15:06:08 UTC

; 

; external perimeters extrusion width = 0.42mm
; perimeters extrusion width = 0.40mm
; infill extrusion width = 0.40mm
; solid infill extrusion width = 0.44mm
; top infill extrusion width = 0.40mm
; first layer extrusion width = 0.42mm

M107
;TYPE:Custom
G90 ; use absolute coordinates
M83 ; extruder relative mode
M140 S70 ; set final bed temp
M104 S150 ; set temporary nozzle temp to prevent oozing during homing
G4 S10 ; allow partial nozzle warmup
G28 ; home all axis
G1 Z50 F240
G1 X2 Y10 F3000
M104 S245 ; set final nozzle temp
M190 S70 ; wait for bed temp to stabilize
M109 S245 ; wait for nozzle temp to stabilize
G1 Z0.28 F240
G92 E0
G1 Y140 E10 F1500 ; prime the nozzle
G1 X2.3 F5000
G92 E0
G1 Y10 E10 F1200 ; prime the nozzle
G92 E0
G21 ; set units to millimeters
G90 ; use absolute coordinates
M83 ; use relative distances for extrusion
; Filament gcode
M107
;LAYER_CHANGE
;Z:0.3
;HEIGHT:0.3
;BEFORE_LAYER_CHANGE
G92 E0
;0.3


G1 E-5 F3600
G1 Z.3 F9000
;AFTER_LAYER_CHANGE
;0.3
G1 X88.143 Y89.097
G1 E5 F2400
M204 S500
;TYPE:Skirt/Brim
;WIDTH:0.42
G1 F1200
G1 X90.893 Y86.435 E.16977
G1 X93.259 Y84.664 E.13107
G1 X96.69 Y82.459 E.18089
G1 X100.079 Y80.68 E.16977
G1 X102.847 Y79.647 E.13107
G1 X106.76 Y78.498 E.18089
G1 X110.513 Y77.746 E.16977
G1 X113.461 Y77.535 E.13107
G1 X117.539 Y77.535 E.18089
G1 X120.487 Y77.746 E.13107
G1 X124.24 Y78.498 E.16977
G1 X128.153 Y79.647 E.18089
G1 X130.921 Y80.68 E.13107
G1 X134.31 Y82.459 E.16977
G1 X137.741 Y84.664 E.18089
G1 X140.767 Y87.008 E.16977
G1 X142.857 Y89.097 E.13107
G1 X145.527 Y92.179 E.18089
G1 X147.771 Y95.28 E.16977
G1 X149.187 Y97.874 E.13107
G1 X150.881 Y101.584 E.18089
G1 X151.914 Y104.352 E.13107
G1 X152.789 Y108.079 E.16977
G1 X153.369 Y112.115 E.18089
G1 X153.58 Y115.063 E.13107
G1 X153.369 Y118.885 E.16977
G1 X152.789 Y122.921 E.18089
G1 X151.914 Y126.648 E.16977
G1 X150.881 Y129.416 E.13107
G1 X149.187 Y133.126 E.18089
G1 X147.771 Y135.72 E.13107
G1 X145.527 Y138.821 E.16977
G1 X142.857 Y141.903 E.18089
G1 X140.107 Y144.565 E.16977
G1 X137.741 Y146.336 E.13107
G1 X134.31 Y148.541 E.18089
G1 X130.921 Y150.32 E.16977
G1 X128.153 Y151.353 E.13107
G1 X124.24 Y152.502 E.18089
G1 X120.487 Y153.254 E.16977
G1 X117.539 Y153.465 E.13107
G1 X113.461 Y153.465 E.18089
G1 X110.513 Y153.254 E.13107
G1 X106.76 Y152.502 E.16978
G1 X102.847 Y151.353 E.18089
G1 X100.079 Y150.32 E.13107
G1 X96.69 Y148.541 E.16977
G1 X93.259 Y146.336 E.18089
G1 X90.233 Y143.992 E.16977
G1 X88.143 Y141.903 E.13107
G1 X85.473 Y138.821 E.18089
G1 X83.229 Y135.72 E.16977
G1 X81.813 Y133.126 E.13107
G1 X80.119 Y129.416 E.18089
G1 X79.086 Y126.648 E.13107
G1 X78.211 Y122.921 E.16977
G1 X77.631 Y118.885 E.18089
G1 X77.42 Y115.063 E.16977
G1 X77.631 Y112.115 E.13107
G1 X78.211 Y108.079 E.18089
G1 X79.086 Y104.352 E.16977
G1 X80.119 Y101.584 E.13107
G1 X81.813 Y97.874 E.18089
G1 X83.229 Y95.28 E.13107
G1 X85.473 Y92.179 E.16977
G1 X88.104 Y89.142 E.17823
G1 X88.373 Y89.375 F9000
G1 F1200
G1 X91.126 Y86.704 E.17017
G1 X93.451 Y84.963 E.12882
G1 X96.882 Y82.758 E.18089
G1 X100.226 Y81.003 E.16752
G1 X102.948 Y79.988 E.12882
G1 X106.861 Y78.839 E.18089
G1 X110.564 Y78.098 E.16752
G1 X113.461 Y77.89 E.12882
G1 X117.539 Y77.89 E.18089
G1 X120.436 Y78.098 E.12882
G1 X124.139 Y78.839 E.16752
G1 X128.052 Y79.988 E.18089
G1 X130.774 Y81.003 E.12882
G1 X134.118 Y82.758 E.16752
G1 X137.549 Y84.963 E.18089
G1 X140.534 Y87.276 E.16752
G1 X142.588 Y89.33 E.12882
G1 X145.259 Y92.412 E.18089
G1 X147.472 Y95.473 E.16752
G1 X148.864 Y98.022 E.12882
G1 X150.558 Y101.731 E.18089
G1 X151.573 Y104.452 E.12882
G1 X152.437 Y108.129 E.16752
G1 X153.017 Y112.166 E.18089
G1 X153.224 Y115.063 E.12882
G1 X153.017 Y118.834 E.16752
G1 X152.437 Y122.871 E.18089
G1 X151.573 Y126.548 E.16752
G1 X150.558 Y129.269 E.12882
G1 X148.864 Y132.978 E.18089
G1 X147.472 Y135.527 E.12882
G1 X145.259 Y138.588 E.16752
G1 X142.588 Y141.67 E.18089
G1 X139.874 Y144.296 E.16752
G1 X137.549 Y146.037 E.12882
G1 X134.118 Y148.242 E.18089
G1 X130.774 Y149.997 E.16752
G1 X128.052 Y151.012 E.12882
G1 X124.139 Y152.161 E.18089
G1 X120.436 Y152.902 E.16752
G1 X117.539 Y153.11 E.12882
G1 X113.461 Y153.11 E.18089
G1 X110.564 Y152.902 E.12882
G1 X106.861 Y152.161 E.16752
G1 X102.948 Y151.012 E.18089
G1 X100.226 Y149.997 E.12882
G1 X96.882 Y148.242 E.16752
G1 X93.451 Y146.037 E.18089
G1 X90.466 Y143.724 E.16752
G1 X88.412 Y141.67 E.12882
G1 X85.741 Y138.588 E.18089
G1 X83.528 Y135.527 E.16752
G1 X82.136 Y132.978 E.12882
G1 X80.442 Y129.269 E.18089
G1 X79.427 Y126.548 E.12882
G1 X78.563 Y122.871 E.16752
G1 X77.983 Y118.834 E.18089
G1 X77.776 Y115.063 E.16752
G1 X77.983 Y112.166 E.12882
G1 X78.563 Y108.129 E.18089
G1 X79.427 Y104.452 E.16752
G1 X80.442 Y101.731 E.12882
G1 X82.136 Y98.022 E.18089
G1 X83.528 Y95.473 E.12882
G1 X85.741 Y92.412 E.16752
G1 X88.333 Y89.421 E.17557
G1 E-3.5 F3600
;WIPE_START
G1 F7200
G1 X90.484 Y87.329 E-1.425
;WIPE_END
G1 E-.075 F3600
G1 X113.732 Y110.245 F9000
G1 E5 F2400
;TYPE:Perimeter
G1 F1200
G1 X114.484 Y110.043 E.03452
G1 X115.372 Y109.914 E.03982
G1 X116.352 Y109.939 E.04348
G1 X117.318 Y110.137 E.04376
G1 X118.242 Y110.502 E.04405
G1 X119.093 Y111.026 E.04432
G1 X119.845 Y111.695 E.04465
G1 X120.471 Y112.487 E.04477
G1 X120.957 Y113.391 E.04553
G1 X121.277 Y114.361 E.04532
G1 X121.425 Y115.383 E.0458
G1 X121.392 Y116.421 E.04606
G1 X121.178 Y117.444 E.04637
G1 X120.786 Y118.42 E.04666
G1 X120.212 Y119.343 E.04823
G1 X119.439 Y120.156 E.04973
G1 X118.548 Y120.779 E.04824
G1 X117.585 Y121.228 E.04713
G1 X116.51 Y121.516 E.04935
G1 X115.39 Y121.558 E.04972
G1 X114.341 Y121.409 E.04699
G1 X113.345 Y121.082 E.04651
G1 X112.426 Y120.59 E.04623
G1 X111.613 Y119.949 E.04592
G1 X110.927 Y119.181 E.04567
G1 X110.391 Y118.314 E.04523
G1 X110.013 Y117.363 E.04541
G1 X109.81 Y116.379 E.04457
G1 X109.781 Y115.376 E.0445
G1 X109.927 Y114.39 E.04419
G1 X110.24 Y113.451 E.04391
G1 X110.709 Y112.586 E.04363
G1 X111.297 Y111.848 E.04185
G1 X111.953 Y111.228 E.04004
G1 X112.723 Y110.689 E.04168
G1 X113.674 Y110.26 E.04629
G1 X113.828 Y110.587 F9000
G1 F1200
G1 X114.555 Y110.393 E.03339
G1 X115.394 Y110.27 E.0376
G1 X116.311 Y110.294 E.04071
G1 X117.217 Y110.479 E.04099
G1 X118.082 Y110.821 E.04128
G1 X118.88 Y111.312 E.04155
G1 X119.586 Y111.94 E.04188
G1 X120.173 Y112.683 E.04203
G1 X120.629 Y113.531 E.0427
G1 X120.93 Y114.443 E.04258
G1 X121.069 Y115.403 E.04303
G1 X121.038 Y116.378 E.04329
G1 X120.836 Y117.341 E.0436
G1 X120.468 Y118.259 E.04389
G1 X119.929 Y119.125 E.04523
G1 X119.206 Y119.885 E.04654
G1 X118.37 Y120.47 E.04528
G1 X117.463 Y120.893 E.04437
G1 X116.457 Y121.163 E.0462
G1 X115.409 Y121.202 E.04652
G1 X114.423 Y121.061 E.04419
G1 X113.485 Y120.754 E.04375
G1 X112.622 Y120.291 E.04346
G1 X111.857 Y119.689 E.04315
G1 X111.213 Y118.968 E.0429
G1 X110.71 Y118.153 E.04248
G1 X110.355 Y117.261 E.04258
G1 X110.164 Y116.337 E.04184
G1 X110.138 Y115.397 E.04173
G1 X110.274 Y114.473 E.04142
G1 X110.568 Y113.593 E.04114
G1 X111.007 Y112.783 E.04086
G1 X111.559 Y112.089 E.03935
G1 X112.178 Y111.505 E.03776
G1 X112.901 Y110.999 E.03915
G1 X113.77 Y110.603 E.04233
G1 X113.923 Y110.93 F9000
G1 F1200
G1 X114.626 Y110.742 E.03227
G1 X115.416 Y110.626 E.03539
G1 X116.271 Y110.649 E.03793
G1 X117.115 Y110.821 E.03822
G1 X117.922 Y111.141 E.03851
G1 X118.667 Y111.599 E.03878
G1 X119.326 Y112.185 E.03911
G1 X119.875 Y112.88 E.03929
G1 X120.301 Y113.671 E.03987
G1 X120.582 Y114.525 E.03985
G1 X120.712 Y115.423 E.04026
G1 X120.684 Y116.336 E.04053
G1 X120.495 Y117.237 E.04083
G1 X120.149 Y118.097 E.04112
G1 X119.646 Y118.906 E.04223
G1 X118.973 Y119.614 E.04335
G1 X118.191 Y120.161 E.04232
G1 X117.341 Y120.558 E.04161
G1 X116.404 Y120.809 E.04304
G1 X115.427 Y120.845 E.04333
G1 X114.504 Y120.713 E.04138
G1 X113.626 Y120.426 E.04098
G1 X112.817 Y119.992 E.04069
G1 X112.102 Y119.429 E.04038
G1 X111.499 Y118.754 E.04013
G1 X111.028 Y117.992 E.03974
G1 X110.697 Y117.16 E.03975
G1 X110.519 Y116.296 E.03911
G1 X110.494 Y115.418 E.03896
G1 X110.621 Y114.556 E.03865
G1 X110.895 Y113.735 E.03837
G1 X111.304 Y112.981 E.03809
G1 X111.822 Y112.331 E.03684
G1 X112.403 Y111.781 E.03549
G1 X113.08 Y111.308 E.03661
G1 X113.865 Y110.945 E.03838
G1 X113.917 Y111.31 F9000
G1 F1200
G1 X114.697 Y111.091 E.03595
G1 X115.438 Y110.983 E.03318
G1 X116.23 Y111.003 E.03516
G1 X117.013 Y111.163 E.03545
G1 X117.763 Y111.46 E.03574
G1 X118.454 Y111.885 E.03601
G1 X119.066 Y112.43 E.03634
G1 X119.577 Y113.076 E.03654
G1 X119.973 Y113.812 E.03705
G1 X120.235 Y114.606 E.03711
G1 X120.356 Y115.443 E.03749
G1 X120.329 Y116.294 E.03776
G1 X120.153 Y117.134 E.03806
G1 X119.831 Y117.936 E.03835
G1 X119.364 Y118.687 E.03923
G1 X118.74 Y119.343 E.04016
G1 X118.013 Y119.852 E.03936
G1 X117.219 Y120.222 E.03885
G1 X116.35 Y120.455 E.03988
G1 X115.446 Y120.489 E.04014
G1 X114.585 Y120.366 E.03858
G1 X113.766 Y120.097 E.03821
G1 X113.013 Y119.694 E.03792
G1 X112.346 Y119.169 E.03761
G1 X111.785 Y118.541 E.03736
G1 X111.347 Y117.831 E.03699
G1 X111.039 Y117.058 E.03692
G1 X110.873 Y116.255 E.03638
G1 X110.85 Y115.439 E.0362
G1 X110.969 Y114.639 E.03588
G1 X111.222 Y113.877 E.0356
G1 X111.602 Y113.178 E.03532
G1 X112.084 Y112.572 E.03434
G1 X112.629 Y112.058 E.03322
G1 X113.258 Y111.617 E.03408
G1 X113.863 Y111.335 E.02959
G1 X114.064 Y111.634 F9000
G1 F1200
G1 X114.769 Y111.44 E.03242
G1 X115.459 Y111.339 E.03096
G1 X116.189 Y111.358 E.03239
G1 X116.911 Y111.506 E.03268
G1 X117.603 Y111.779 E.03297
G1 X118.241 Y112.172 E.03324
G1 X118.807 Y112.675 E.03357
G1 X119.279 Y113.273 E.0338
G1 X119.645 Y113.952 E.03422
G1 X119.887 Y114.688 E.03437
G1 X119.999 Y115.463 E.03472
G1 X119.975 Y116.251 E.03499
G1 X119.811 Y117.03 E.03529
G1 X119.513 Y117.775 E.03558
G1 X119.081 Y118.468 E.03624
G1 X118.506 Y119.072 E.03697
G1 X117.834 Y119.543 E.03641
G1 X117.097 Y119.887 E.03609
G1 X116.297 Y120.101 E.03672
G1 X115.465 Y120.132 E.03694
G1 X114.666 Y120.018 E.03578
G1 X113.907 Y119.769 E.03544
G1 X113.208 Y119.395 E.03515
G1 X112.591 Y118.909 E.03484
G1 X112.071 Y118.327 E.03459
G1 X111.665 Y117.671 E.03425
G1 X111.381 Y116.956 E.03409
G1 X111.228 Y116.213 E.03364
G1 X111.207 Y115.46 E.03343
G1 X111.316 Y114.722 E.03311
G1 X111.55 Y114.019 E.03283
G1 X111.9 Y113.375 E.03255
G1 X112.347 Y112.813 E.03183
G1 X112.854 Y112.334 E.03094
G1 X113.437 Y111.926 E.03155
G1 X114.009 Y111.659 E.02804
G1 X114.211 Y111.957 F9000
;TYPE:External perimeter
G1 F1200
G1 X114.84 Y111.789 E.0289
G1 X115.481 Y111.695 E.02875
G1 X116.149 Y111.713 E.02962
G1 X116.81 Y111.848 E.02991
G1 X117.443 Y112.098 E.0302
G1 X118.028 Y112.458 E.03047
G1 X118.547 Y112.92 E.0308
G1 X118.981 Y113.469 E.03106
G1 X119.317 Y114.092 E.0314
G1 X119.54 Y114.77 E.03164
G1 X119.643 Y115.483 E.03195
G1 X119.62 Y116.209 E.03222
G1 X119.47 Y116.927 E.03252
G1 X119.194 Y117.613 E.03281
G1 X118.798 Y118.249 E.03324
G1 X118.273 Y118.801 E.03377
G1 X117.656 Y119.234 E.03345
G1 X116.975 Y119.551 E.03333
G1 X116.244 Y119.747 E.03357
G1 X115.483 Y119.775 E.03375
G1 X114.747 Y119.67 E.03298
G1 X114.047 Y119.441 E.03267
G1 X113.403 Y119.096 E.03238
G1 X112.835 Y118.649 E.03208
G1 X112.357 Y118.114 E.03182
G1 X111.984 Y117.51 E.0315
G1 X111.723 Y116.855 E.03126
G1 X111.583 Y116.172 E.03091
G1 X111.563 Y115.481 E.03066
G1 X111.663 Y114.805 E.03034
G1 X111.877 Y114.162 E.03006
G1 X112.198 Y113.572 E.02978
G1 X112.609 Y113.054 E.02933
G1 X113.079 Y112.61 E.02867
G1 X113.615 Y112.235 E.02901
G1 X114.156 Y111.983 E.02649
G1 X114.28 Y111.564 F9000
G1 X106.943 Y106.872
;TYPE:Perimeter
G1 F1200
G1 X107.483 Y106.248 E.0366
G1 X110.414 Y104.364 E.15455
G1 X113.758 Y103.383 E.15455
G1 X117.242 Y103.383 E.15455
G1 X120.586 Y104.364 E.15455
G1 X123.517 Y106.248 E.15455
G1 X125.799 Y108.881 E.15455
G1 X126.623 Y110.686 E.08799
G1 X127.246 Y112.051 E.06656
G1 X127.742 Y115.5 E.15455
G1 X127.246 Y118.949 E.15455
G1 X126.623 Y120.314 E.06656
G1 X125.799 Y122.119 E.08799
G1 X123.517 Y124.752 E.15455
G1 X120.586 Y126.636 E.15455
G1 X117.242 Y127.617 E.15455
G1 X113.758 Y127.617 E.15455
G1 X110.414 Y126.636 E.15455
G1 X107.483 Y124.752 E.15455
G1 X105.201 Y122.119 E.15455
G1 X103.754 Y118.949 E.15455
G1 X103.258 Y115.5 E.15455
G1 X103.754 Y112.051 E.15455
G1 X105.201 Y108.881 E.15455
G1 X106.904 Y106.917 E.1153
G1 X106.939 Y106.333 F9000
G1 F1200
G1 X107.248 Y105.977 E.02092
G1 X110.265 Y104.037 E.15909
G1 X113.707 Y103.027 E.15909
G1 X117.293 Y103.027 E.15909
G1 X120.735 Y104.037 E.15909
G1 X123.752 Y105.977 E.15909
G1 X126.101 Y108.687 E.15909
G1 X126.946 Y110.538 E.09026
G1 X127.591 Y111.95 E.06883
G1 X128.101 Y115.5 E.15909
G1 X127.591 Y119.05 E.15909
G1 X126.946 Y120.462 E.06883
G1 X126.101 Y122.313 E.09026
G1 X123.752 Y125.023 E.15909
G1 X120.735 Y126.963 E.15909
G1 X117.293 Y127.973 E.15909
G1 X113.707 Y127.973 E.15909
G1 X110.265 Y126.963 E.15909
G1 X107.248 Y125.023 E.15909
G1 X104.899 Y122.313 E.15909
G1 X103.409 Y119.05 E.15909
G1 X102.899 Y115.5 E.15909
G1 X103.409 Y111.95 E.15909
G1 X104.899 Y108.687 E.15909
G1 X106.9 Y106.378 E.13551
G1 X106.935 Y105.794 F9000
G1 F1200
G1 X107.013 Y105.705 E.00524
G1 X110.116 Y103.711 E.16362
G1 X113.656 Y102.671 E.16362
G1 X117.344 Y102.671 E.16362
G1 X120.884 Y103.711 E.16362
G1 X123.987 Y105.705 E.16362
G1 X126.403 Y108.493 E.16362
G1 X127.27 Y110.391 E.09253
G1 X127.936 Y111.849 E.07109
G1 X128.461 Y115.5 E.16362
G1 X127.936 Y119.151 E.16362
G1 X126.403 Y122.507 E.16362
G1 X123.987 Y125.295 E.16362
G1 X120.884 Y127.289 E.16362
G1 X117.344 Y128.329 E.16362
G1 X113.656 Y128.329 E.16362
G1 X110.116 Y127.289 E.16362
G1 X107.013 Y125.295 E.16362
G1 X104.597 Y122.507 E.16362
G1 X103.064 Y119.151 E.16362
G1 X102.539 Y115.5 E.16362
G1 X103.064 Y111.849 E.16362
G1 X104.597 Y108.493 E.16362
G1 X106.896 Y105.84 E.15572
G1 X106.945 Y105.299 F9000
G1 F1200
G1 X106.958 Y105.317 E.00102
G1 X109.786 Y103.5 E.14909
G1 X109.065 Y102.191 E.06628
G1 X108.934 Y101.696 E.02271
G1 X108.89 Y101.378 E.01423
G1 X108.864 Y100.969 E.01817
G1 X109.146 Y101.247 E.01754
G1 X109.514 Y101.694 E.02568
G1 X109.692 Y101.997 E.01559
G1 X110.161 Y103.327 E.06255
G1 X113.41 Y102.373 E.15021
G1 X113.086 Y101 E.06255
G1 X113.072 Y100.649 E.01559
G1 X113.14 Y100.074 E.02568
G1 X113.227 Y99.689 E.01754
G1 X113.426 Y100.047 E.01817
G1 X113.561 Y100.338 E.01423
G1 X113.718 Y100.825 E.02271
G1 X113.819 Y102.316 E.06628
G1 X117.193 Y102.316 E.14965
G1 X117.269 Y100.887 E.06346
G1 X117.298 Y100.749 E.00627
G1 X117.445 Y100.325 E.01989
G1 X117.574 Y100.047 E.01361
G1 X117.773 Y99.689 E.01817
G1 X117.863 Y100.088 E.01817
G1 X117.909 Y100.392 E.01361
G1 X117.931 Y100.84 E.01989
G1 X117.919 Y100.98 E.00627
G1 X117.59 Y102.373 E.06346
G1 X120.827 Y103.323 E.14965
G1 X121.344 Y101.921 E.06628
G1 X121.632 Y101.498 E.02271
G1 X121.844 Y101.257 E.01423
G1 X122.136 Y100.969 E.01817
G1 X122.111 Y101.364 E.01754
G1 X122.014 Y101.935 E.02569
G1 X121.902 Y102.268 E.01559
G1 X121.203 Y103.493 E.06255
G1 X124.042 Y105.317 E.14965
G1 X124.933 Y104.118 E.06628
G1 X125.329 Y103.793 E.02271
G1 X125.6 Y103.621 E.01423
G1 X125.961 Y103.428 E.01817
G1 X125.82 Y103.813 E.01817
G1 X125.689 Y104.105 E.01423
G1 X125.424 Y104.543 E.02271
G1 X124.363 Y105.596 E.06628
G1 X126.565 Y108.136 E.14909
G1 X127.758 Y107.237 E.06628
G1 X128.229 Y107.036 E.02271
G1 X128.537 Y106.948 E.01423
G1 X128.938 Y106.864 E.01817
G1 X128.704 Y107.182 E.01754
G1 X128.314 Y107.61 E.02568
G1 X128.039 Y107.83 E.01559
G1 X126.789 Y108.483 E.06255
G1 X128.191 Y111.552 E.14965
G1 X129.589 Y111.025 E.06628
G1 X130.098 Y110.965 E.02271
G1 X130.419 Y110.967 E.01423
G1 X130.827 Y111 E.01817
G1 X130.501 Y111.247 E.01817
G1 X130.232 Y111.423 E.01423
G1 X129.772 Y111.648 E.02271
G1 X128.311 Y111.96 E.06628
G1 X128.791 Y115.3 E.14965
G1 X130.196 Y115.174 E.06255
G1 X130.545 Y115.21 E.01559
G1 X131.105 Y115.359 E.02568
G1 X131.474 Y115.5 E.01754
G1 X131.091 Y115.646 E.01817
G1 X130.784 Y115.738 E.01423
G1 X130.279 Y115.825 E.02271
G1 X128.789 Y115.713 E.06628
G1 X128.311 Y119.04 E.14909
G1 X129.772 Y119.352 E.06628
G1 X130.232 Y119.577 E.02271
