; generated by PrusaSlicer 2.5.1+linux-x64-GTK3 on 2023-04-25 at 14:34:57 UTC

; 

; external perimeters extrusion width = 0.42mm
; perimeters extrusion width = 0.40mm
; infill extrusion width = 0.40mm
; solid infill extrusion width = 0.44mm
; top infill extrusion width = 0.40mm
; first layer extrusion width = 0.42mm

M107
;TYPE:Custom
G90 ; use absolute coordinates
M83 ; extruder relative mode
M140 S70 ; set final bed temp
M104 S150 ; set temporary nozzle temp to prevent oozing during homing
G4 S10 ; allow partial nozzle warmup
G28 ; home all axis
G1 Z50 F240
G1 X2 Y10 F3000
M104 S245 ; set final nozzle temp
M190 S70 ; wait for bed temp to stabilize
M109 S245 ; wait for nozzle temp to stabilize
G1 Z0.28 F240
G92 E0
G1 Y140 E10 F1500 ; prime the nozzle
G1 X2.3 F5000
G92 E0
G1 Y10 E10 F1200 ; prime the nozzle
G92 E0
G21 ; set units to millimeters
G90 ; use absolute coordinates
M83 ; use relative distances for extrusion
; Filament gcode
M107
;LAYER_CHANGE
;Z:0.3
;HEIGHT:0.3
;BEFORE_LAYER_CHANGE
G92 E0
;0.3


G1 E-5 F3600
G1 Z.3 F9000
;AFTER_LAYER_CHANGE
;0.3
G1 X82.106 Y35.139
G1 E5 F2400
M204 S500
;TYPE:Skirt/Brim
;WIDTH:0.42
G1 F1200
G1 X82.618 Y33.945 E.05764
G1 X85.06 Y29.935 E.20825
G1 X88.813 Y25.389 E.26147
G1 X89.375 Y24.877 E.0337
G1 X94.256 Y21.572 E.26148
G1 X98.479 Y19.52 E.20825
G1 X104.094 Y17.724 E.26147
G1 X104.843 Y17.598 E.0337
G1 X110.736 Y17.456 E.26147
G1 X115.398 Y18.012 E.20825
G1 X121.093 Y19.537 E.26147
G1 X121.791 Y19.836 E.0337
G1 X126.825 Y22.903 E.26147
G1 X130.446 Y25.892 E.20825
G1 X134.413 Y30.253 E.26147
G1 X134.839 Y30.882 E.0337
G1 X137.416 Y36.184 E.26148
G1 X138.846 Y40.656 E.20825
G1 X139.825 Y46.469 E.26146
G1 X139.843 Y47.228 E.0337
G1 X139.145 Y53.082 E.26148
G1 X137.93 Y57.617 E.20825
G1 X135.611 Y63.037 E.26147
G1 X135.216 Y63.686 E.0337
G1 X131.463 Y68.232 E.26147
G1 X127.99 Y71.391 E.20825
G1 X123.108 Y74.696 E.26147
G1 X122.425 Y75.029 E.0337
G1 X116.81 Y76.825 E.26147
G1 X112.18 Y77.604 E.20825
G1 X106.287 Y77.746 E.26148
G1 X105.533 Y77.656 E.0337
G1 X99.838 Y76.131 E.26147
G1 X95.522 Y74.284 E.20825
G1 X90.488 Y71.217 E.26148
G1 X89.902 Y70.733 E.0337
G1 X85.935 Y66.372 E.26147
G1 X83.303 Y62.484 E.20825
G1 X80.726 Y57.182 E.26147
G1 X80.495 Y56.459 E.0337
G1 X79.516 Y50.645 E.26147
G1 X79.403 Y45.952 E.20825
G1 X80.102 Y40.098 E.26147
G1 X80.298 Y39.364 E.0337
G1 X82.083 Y35.195 E.20118
G1 X82.406 Y35.333 F9000
G1 F1200
G1 X82.921 Y34.13 E.05806
G1 X85.364 Y30.12 E.20825
G1 X89.052 Y25.652 E.25698
G1 X89.614 Y25.141 E.0337
G1 X94.412 Y21.892 E.25699
G1 X98.634 Y19.84 E.20825
G1 X104.153 Y18.074 E.25698
G1 X104.902 Y17.948 E.0337
G1 X110.694 Y17.809 E.25698
G1 X115.356 Y18.366 E.20825
G1 X120.953 Y19.864 E.25698
G1 X121.651 Y20.163 E.0337
G1 X126.599 Y23.177 E.25698
G1 X130.22 Y26.166 E.20825
G1 X134.118 Y30.452 E.25698
G1 X134.544 Y31.081 E.0337
G1 X137.077 Y36.292 E.25699
G1 X138.507 Y40.764 E.20825
G1 X139.469 Y46.477 E.25697
G1 X139.488 Y47.237 E.0337
G1 X138.801 Y52.99 E.25699
G1 X137.587 Y57.525 E.20825
G1 X135.307 Y62.852 E.25698
G1 X134.912 Y63.501 E.0337
G1 X131.224 Y67.969 E.25698
G1 X127.75 Y71.128 E.20825
G1 X122.953 Y74.377 E.25698
G1 X122.27 Y74.709 E.0337
G1 X116.751 Y76.474 E.25698
G1 X112.121 Y77.254 E.20825
G1 X106.329 Y77.393 E.25699
G1 X105.575 Y77.303 E.0337
G1 X99.978 Y75.804 E.25698
G1 X95.662 Y73.957 E.20825
G1 X90.714 Y70.942 E.25699
G1 X90.128 Y70.459 E.0337
G1 X86.23 Y66.172 E.25698
G1 X83.597 Y62.285 E.20825
G1 X81.065 Y57.074 E.25698
G1 X80.833 Y56.35 E.0337
G1 X79.871 Y50.637 E.25698
G1 X79.759 Y45.943 E.20825
G1 X80.445 Y40.19 E.25698
G1 X80.642 Y39.456 E.0337
G1 X82.383 Y35.388 E.19627
G1 E-3.5 F3600
;WIPE_START
G1 F7200
G1 X82.921 Y34.13 E-.65022
G1 X83.77 Y32.737 E-.77478
;WIPE_END
G1 E-.075 F3600
G1 X106.579 Y43.749 F9000
G1 E5 F2400
;TYPE:Perimeter
G1 F1200
G1 X106.711 Y43.605 E.00869
G1 X107.815 Y43.711 E.04923
G1 X111.537 Y43.864 E.1652
G1 X112.615 Y43.845 E.04781
G1 X113.462 Y44.947 E.06165
G1 X113.84 Y45.671 E.03623
G1 X114.086 Y46.449 E.03623
G1 X114.194 Y47.259 E.03623
G1 X114.16 Y48.075 E.03623
G1 X113.984 Y48.873 E.03623
G1 X113.673 Y49.628 E.03623
G1 X113.235 Y50.318 E.03623
G1 X112.684 Y50.921 E.03623
G1 X112.037 Y51.42 E.03623
G1 X111.314 Y51.798 E.03623
G1 X110.535 Y52.046 E.03623
G1 X109.726 Y52.154 E.03623
G1 X108.91 Y52.121 E.03623
G1 X108.112 Y51.946 E.03623
G1 X107.356 Y51.636 E.03623
G1 X106.666 Y51.199 E.03623
G1 X106.06 Y50.646 E.03637
G1 X105.553 Y49.984 E.03699
G1 X105.183 Y49.279 E.03532
G1 X104.935 Y48.501 E.03623
G1 X104.826 Y47.691 E.03623
G1 X104.858 Y46.875 E.03623
G1 X105.032 Y46.077 E.03623
G1 X105.342 Y45.321 E.03623
G1 X105.778 Y44.63 E.03623
G1 X106.539 Y43.794 E.05014
G1 X106.984 Y43.988 F9000
G1 F1200
G1 X107.791 Y44.066 E.03596
G1 X111.533 Y44.22 E.1661
G1 X112.442 Y44.203 E.04033
G1 X113.161 Y45.139 E.05233
G1 X113.51 Y45.808 E.03347
G1 X113.738 Y46.527 E.03347
G1 X113.837 Y47.275 E.03347
G1 X113.806 Y48.029 E.03347
G1 X113.643 Y48.766 E.03347
G1 X113.356 Y49.464 E.03347
G1 X112.952 Y50.101 E.03347
G1 X112.443 Y50.658 E.03347
G1 X111.845 Y51.119 E.03347
G1 X111.176 Y51.469 E.03347
G1 X110.457 Y51.698 E.03347
G1 X109.709 Y51.798 E.03347
G1 X108.955 Y51.767 E.03347
G1 X108.218 Y51.605 E.03347
G1 X107.52 Y51.318 E.03347
G1 X106.882 Y50.915 E.03347
G1 X106.323 Y50.405 E.03357
G1 X105.854 Y49.792 E.03423
G1 X105.513 Y49.141 E.0326
G1 X105.283 Y48.422 E.03347
G1 X105.182 Y47.674 E.03347
G1 X105.213 Y46.92 E.03347
G1 X105.373 Y46.183 E.03347
G1 X105.659 Y45.485 E.03347
G1 X106.062 Y44.847 E.03347
G1 X106.854 Y43.976 E.05221
G1 X106.924 Y43.982 E.00313
G1 X107.062 Y44.353 F9000
G1 F1200
G1 X107.767 Y44.421 E.03139
G1 X111.529 Y44.575 E.167
G1 X112.269 Y44.562 E.03286
G1 X112.86 Y45.331 E.043
G1 X113.181 Y45.945 E.03071
G1 X113.39 Y46.605 E.03071
G1 X113.481 Y47.291 E.03071
G1 X113.452 Y47.983 E.03071
G1 X113.303 Y48.659 E.03071
G1 X113.039 Y49.3 E.03071
G1 X112.668 Y49.884 E.03071
G1 X112.201 Y50.396 E.03071
G1 X111.653 Y50.818 E.03071
G1 X111.039 Y51.139 E.03071
G1 X110.379 Y51.349 E.03071
G1 X109.693 Y51.441 E.03071
G1 X109.001 Y51.413 E.03071
G1 X108.324 Y51.265 E.03071
G1 X107.684 Y51.001 E.03071
G1 X107.099 Y50.631 E.03071
G1 X106.586 Y50.164 E.03078
G1 X106.155 Y49.6 E.03147
G1 X105.842 Y49.003 E.02988
G1 X105.632 Y48.344 E.03071
G1 X105.539 Y47.657 E.03071
G1 X105.567 Y46.966 E.03071
G1 X105.714 Y46.289 E.03071
G1 X105.977 Y45.648 E.03071
G1 X106.346 Y45.063 E.03071
G1 X107.003 Y44.347 E.04307
G1 X107.141 Y44.718 F9000
;TYPE:External perimeter
G1 F1200
G1 X107.742 Y44.776 E.02681
G1 X111.524 Y44.931 E.16789
G1 X112.096 Y44.921 E.02538
G1 X112.559 Y45.523 E.03368
G1 X112.851 Y46.082 E.02796
G1 X113.041 Y46.683 E.02796
G1 X113.124 Y47.307 E.02796
G1 X113.098 Y47.937 E.02796
G1 X112.962 Y48.553 E.02796
G1 X112.722 Y49.135 E.02796
G1 X112.384 Y49.668 E.02796
G1 X111.959 Y50.133 E.02796
G1 X111.46 Y50.518 E.02796
G1 X110.902 Y50.81 E.02796
G1 X110.301 Y51.001 E.02796
G1 X109.676 Y51.085 E.02796
G1 X109.047 Y51.059 E.02796
G1 X108.431 Y50.924 E.02796
G1 X107.848 Y50.684 E.02796
G1 X107.315 Y50.347 E.02796
G1 X106.849 Y49.922 E.02798
G1 X106.456 Y49.408 E.02871
G1 X106.171 Y48.866 E.02716
G1 X105.98 Y48.265 E.02796
G1 X105.895 Y47.641 E.02796
G1 X105.921 Y47.011 E.02796
G1 X106.055 Y46.395 E.02796
G1 X106.294 Y45.812 E.02796
G1 X106.63 Y45.279 E.02796
G1 X107.1 Y44.762 E.03098
G1 X107.253 Y44.334 F9000
G1 X106.145 Y43.698
;TYPE:Perimeter
G1 F1200
G1 X105.954 Y43.908 E.0126
G1 X105.97 Y43.69 E.00972
G1 X106.085 Y43.701 E.00514
G1 X108.712 Y42.867 F9000
G1 F1200
G1 X109.055 Y43.05 E.01724
G1 X108.562 Y43.03 E.0219
G1 X108.671 Y42.911 E.00719
G1 X108.829 Y42.526 F9000
G1 F1200
G1 X109.3 Y42.778 E.0237
G1 X110.835 Y42.961 E.06857
G1 X111.457 Y42.799 E.02851
G1 X111.573 Y42.747 E.00565
G1 X111.614 Y42.867 E.00565
G1 X111.927 Y43.428 E.02851
G1 X112.013 Y43.5 E.00497
G1 X111.541 Y43.508 E.02096
G1 X107.84 Y43.356 E.1643
G1 X107.426 Y43.316 E.01843
G1 X108.128 Y42.975 E.03461
G1 X108.564 Y42.503 E.02851
G1 X108.633 Y42.396 E.00565
G1 X108.776 Y42.497 E.00778
G1 X113.628 Y44.579 F9000
G1 F1200
G1 X113.856 Y44.631 E.01036
G1 X113.815 Y44.855 E.0101
G1 X113.665 Y44.627 E.01212
G1 X114.549 Y47.228 F9000
G1 F1200
G1 X114.662 Y47.368 E.00796
G1 X114.758 Y47.451 E.00565
G1 X114.666 Y47.539 E.00565
G1 X114.53 Y47.723 E.01014
G1 X114.549 Y47.288 E.01931
G1 X113.987 Y50.293 F9000
G1 F1200
G1 X113.992 Y50.311 E.00083
G1 X113.867 Y50.335 E.00564
G1 X113.574 Y50.447 E.01392
G1 X113.924 Y49.896 E.02893
G1 X113.97 Y50.235 E.01518
G1 X112.009 Y51.836 F9000
G1 F1200
G1 X111.838 Y52.181 E.01705
G1 X111.802 Y52.303 E.00565
G1 X111.684 Y52.255 E.00565
G1 X111.301 Y52.176 E.01734
G1 X111.451 Y52.128 E.00697
G1 X111.955 Y51.864 E.02525
G1 X109.34 Y52.494 F9000
G1 F1200
G1 X108.979 Y52.711 E.01869
G1 X108.883 Y52.794 E.00564
G1 X108.783 Y52.655 E.00757
G1 X108.486 Y52.392 E.01761
G1 X108.864 Y52.475 E.01715
G1 X109.28 Y52.492 E.01849
G1 X106.672 Y51.623 F9000
G1 F1200
G1 X106.287 Y51.611 E.01711
G1 X106.161 Y51.629 E.00565
G1 X106.155 Y51.502 E.00564
G1 X106.073 Y51.139 E.01652
G1 X106.449 Y51.482 E.02261
G1 X106.622 Y51.591 E.00903
G1 X104.845 Y49.388 F9000
G1 F1200
G1 X104.617 Y49.231 E.01229
G1 X104.501 Y49.178 E.00565
G1 X104.564 Y49.068 E.00564
G1 X104.659 Y48.806 E.01233
G1 X104.827 Y49.331 E.02441
G1 X104.541 Y46.425 F9000
G1 F1200
G1 X104.43 Y46.218 E.01042
G1 X104.672 Y46.062 E.01278
G1 X104.575 Y46.507 E.02021
G1 X104.564 Y46.481 E.00126
G1 X104.214 Y46.566 F9000
G1 F1200
G1 X103.963 Y46.15 E.02155
G1 X103.893 Y46.075 E.00457
G1 X103.992 Y46.044 E.00457
G1 X104.352 Y45.858 E.01798
G1 X104.785 Y45.528 E.02416
G1 X105.52 Y44.322 E.06262
G1 X105.614 Y43.786 E.02416
G1 X105.614 Y43.381 E.01798
G1 X105.597 Y43.279 E.00457
G1 X105.696 Y43.306 E.00457
G1 X106.1 Y43.345 E.01799
G1 X106.642 Y43.302 E.02416
G1 X107.912 Y42.684 E.06262
G1 X108.282 Y42.284 E.02416
G1 X108.501 Y41.943 E.01798
G1 X108.541 Y41.848 E.00457
G1 X108.609 Y41.925 E.00457
G1 X108.928 Y42.175 E.01799
G1 X109.408 Y42.433 E.02416
G1 X110.81 Y42.6 E.06262
G1 X111.337 Y42.463 E.02416
G1 X111.706 Y42.294 E.01799
G1 X111.791 Y42.236 E.00457
G1 X111.807 Y42.338 E.00457
G1 X111.94 Y42.721 E.01799
G1 X112.205 Y43.197 E.02416
G1 X113.294 Y44.095 E.06262
G1 X113.811 Y44.265 E.02416
G1 X114.213 Y44.323 E.01798
G1 X114.316 Y44.32 E.00457
G1 X114.274 Y44.414 E.00457
G1 X114.171 Y44.841 E.01949
G1 X114.165 Y45.415 E.02547
G1 X114.575 Y46.696 E.05966
G1 X114.918 Y47.119 E.02416
G1 X115.225 Y47.385 E.01798
G1 X115.313 Y47.438 E.00457
G1 X115.227 Y47.495 E.00457
G1 X114.934 Y47.775 E.01799
G1 X114.611 Y48.213 E.02416
G1 X114.246 Y49.577 E.06262
G1 X114.307 Y50.118 E.02416
G1 X114.421 Y50.507 E.01799
G1 X114.467 Y50.6 E.00457
G1 X114.364 Y50.601 E.00457
G1 X113.965 Y50.678 E.01798
G1 X113.457 Y50.873 E.02416
G1 X112.412 Y51.823 E.06262
G1 X112.17 Y52.311 E.02416
G1 X112.056 Y52.7 E.01799
G1 X112.045 Y52.802 E.00457
G1 X111.957 Y52.748 E.00457
G1 X111.581 Y52.597 E.01799
G1 X111.048 Y52.486 E.02416
G1 X109.655 Y52.72 E.06262
G1 X109.188 Y53 E.02416
G1 X108.882 Y53.266 E.01798
G1 X108.817 Y53.346 E.00457
G1 X108.772 Y53.253 E.00457
G1 X108.517 Y52.895 E.01949
G1 X108.087 Y52.514 E.02547
G1 X106.851 Y51.985 E.05965
G1 X106.307 Y51.968 E.02416
G1 X105.905 Y52.025 E.01799
G1 X105.807 Y52.058 E.00457
G1 X105.82 Y51.955 E.00457
G1 X105.801 Y51.55 E.01799
G1 X105.681 Y51.019 E.02416
G1 X104.889 Y49.85 E.06262
G1 X104.441 Y49.541 E.02416
G1 X104.072 Y49.373 E.01798
G1 X103.972 Y49.347 E.00457
G1 X104.038 Y49.268 E.00457
G1 X104.241 Y48.917 E.01798
G1 X104.427 Y48.405 E.02416
G1 X104.393 Y46.994 E.06262
G1 X104.237 Y46.622 E.01789
G1 X103.837 Y46.612 F9000
G1 F1200
G1 X103.681 Y46.369 E.01282
G1 X103.448 Y46.117 E.01523
G1 X103.175 Y45.909 E.01522
G1 X103.068 Y45.853 E.00536
G1 X103.188 Y45.859 E.00536
G1 X103.529 Y45.816 E.01523
G1 X103.856 Y45.714 E.01522
G1 X104.161 Y45.556 E.01522
G1 X104.517 Y45.286 E.0198
G1 X105.181 Y44.195 E.05667
G1 X105.259 Y43.755 E.0198
G1 X105.259 Y43.412 E.01522
G1 X105.199 Y43.074 E.01523
G1 X105.082 Y42.751 E.01523
G1 X105.021 Y42.647 E.00536
G1 X105.12 Y42.717 E.00536
G1 X105.43 Y42.864 E.01522
G1 X105.761 Y42.955 E.01522
G1 X106.102 Y42.988 E.01523
G1 X106.547 Y42.952 E.0198
G1 X107.696 Y42.394 E.05667
G1 X107.999 Y42.066 E.0198
G1 X108.185 Y41.777 E.01522
G1 X108.317 Y41.461 E.01523
G1 X108.393 Y41.126 E.01522
G1 X108.399 Y41.005 E.00536
G1 X108.444 Y41.117 E.00536
G1 X108.625 Y41.409 E.01522
G1 X108.854 Y41.665 E.01522
G1 X109.124 Y41.877 E.01523
G1 X109.517 Y42.087 E.0198
G1 X110.786 Y42.239 E.05667
G1 X111.218 Y42.127 E.0198
G1 X111.53 Y41.984 E.01523
G1 X111.813 Y41.789 E.01522
G1 X112.057 Y41.549 E.01522
G1 X112.127 Y41.45 E.00536
G1 X112.105 Y41.569 E.00536
G1 X112.099 Y41.912 E.01522
G1 X112.154 Y42.251 E.01523
G1 X112.266 Y42.575 E.01522
G1 X112.483 Y42.965 E.0198
G1 X113.469 Y43.779 E.05667
G1 X113.893 Y43.918 E.0198
G1 X114.233 Y43.967 E.01522
G1 X114.576 Y43.956 E.01523
G1 X114.912 Y43.885 E.01522
G1 X115.024 Y43.84 E.00536
G1 X114.94 Y43.928 E.00536
G1 X114.75 Y44.214 E.01523
G1 X114.613 Y44.528 E.01523
G1 X114.526 Y44.886 E.01631
G1 X114.521 Y45.362 E.02112
G1 X114.893 Y46.524 E.05413
G1 X115.175 Y46.871 E.0198
G1 X115.434 Y47.095 E.01522
G1 X115.729 Y47.272 E.01522
G1 X116.049 Y47.394 E.01523
G1 X116.168 Y47.417 E.00536
G1 X116.05 Y47.446 E.00536
G1 X115.736 Y47.583 E.01523
G1 X115.45 Y47.773 E.01522
G1 X115.202 Y48.01 E.01523
G1 X114.937 Y48.37 E.0198
G1 X114.607 Y49.604 E.05667
G1 X114.656 Y50.048 E.0198
G1 X114.753 Y50.377 E.01523
G1 X114.906 Y50.685 E.01523
G1 X115.109 Y50.961 E.01522
G1 X115.197 Y51.045 E.00536
G1 X115.083 Y51.005 E.00536
G1 X114.744 Y50.951 E.01522
G1 X114.4 Y50.956 E.01522
G1 X114.063 Y51.021 E.01522
G1 X113.646 Y51.181 E.01981
G1 X112.701 Y52.041 E.05667
G1 X112.503 Y52.441 E.0198
G1 X112.406 Y52.77 E.01523
G1 X112.368 Y53.111 E.01522
G1 X112.39 Y53.454 E.01522
G1 X112.419 Y53.571 E.00536
G1 X112.344 Y53.476 E.00536
G1 X112.088 Y53.247 E.01522
G1 X111.796 Y53.066 E.01523
G1 X111.478 Y52.939 E.01523
G1 X111.041 Y52.848 E.0198
G1 X109.781 Y53.06 E.05667
G1 X109.398 Y53.289 E.01981
G1 X109.138 Y53.514 E.01522
G1 X108.922 Y53.78 E.01522
G1 X108.755 Y54.08 E.01523
G1 X108.715 Y54.195 E.00536
G1 X108.704 Y54.074 E.00536
G1 X108.612 Y53.744 E.01522
G1 X108.465 Y53.434 E.01523
G1 X108.251 Y53.134 E.01631
G1 X107.895 Y52.818 E.02112
G1 X106.773 Y52.338 E.05413
G1 X106.326 Y52.324 E.0198
G1 X105.987 Y52.373 E.01523
G1 X105.661 Y52.48 E.01522
G1 X105.358 Y52.642 E.01523
G1 X105.263 Y52.717 E.00536
G1 X105.318 Y52.61 E.00536
G1 X105.42 Y52.282 E.01523
G1 X105.464 Y51.941 E.01522
G1 X105.447 Y51.599 E.01523
G1 X105.349 Y51.163 E.0198
G1 X104.632 Y50.105 E.05667
G1 X104.265 Y49.852 E.0198
G1 X103.952 Y49.709 E.01522
G1 X103.62 Y49.623 E.01523
G1 X103.278 Y49.596 E.01522
G1 X103.158 Y49.608 E.00536
G1 X103.262 Y49.547 E.00536
G1 X103.525 Y49.326 E.01523
G1 X103.746 Y49.063 E.01522
G1 X103.917 Y48.766 E.01522
G1 X104.07 Y48.347 E.01981
G1 X104.039 Y47.069 E.05667
G1 X103.869 Y46.663 E.01955
G1 X108.242 Y40.071 F9000
G1 F1200
G1 X108.125 Y39.845 E.01128
G1 X108.157 Y39.567 E.01244
G1 X108.278 Y39.82 E.01244
G1 X108.25 Y40.012 E.00862
G1 X112.5 Y40.58 F9000
G1 F1200
G1 X112.523 Y40.339 E.0107
G1 X112.701 Y40.109 E.01293
G1 X112.667 Y40.387 E.01244
G1 X112.539 Y40.534 E.00862
G1 X115.808 Y43.31 F9000
G1 F1200
G1 X115.957 Y43.12 E.0107
G1 X116.232 Y43.023 E.01293
G1 X116.052 Y43.238 E.01244
G1 X115.865 Y43.293 E.00862
G1 X117.114 Y47.394 F9000
G1 F1200
G1 X117.342 Y47.315 E.0107
G1 X117.626 Y47.382 E.01293
G1 X117.346 Y47.462 E.01293
G1 X117.172 Y47.411 E.00804
G1 X116.005 Y51.537 F9000
G1 F1200
G1 X116.24 Y51.594 E.0107
G1 X116.442 Y51.803 E.01293
G1 X116.163 Y51.719 E.01293
G1 X116.045 Y51.582 E.00804
G1 X112.832 Y54.423 F9000
G1 F1200
G1 X112.999 Y54.597 E.0107
G1 X113.056 Y54.883 E.01293
G1 X112.869 Y54.674 E.01244
G1 X112.841 Y54.482 E.00862
G1 X108.603 Y55.135 F9000
G1 F1200
G1 X108.649 Y55.372 E.0107
G1 X108.543 Y55.643 E.01293
G1 X108.498 Y55.366 E.01244
G1 X108.578 Y55.189 E.00862
