; generated by PrusaSlicer 2.5.1+linux-x64-GTK3 on 2023-04-25 at 14:11:05 UTC

; 

; external perimeters extrusion width = 0.42mm
; perimeters extrusion width = 0.40mm
; infill extrusion width = 0.40mm
; solid infill extrusion width = 0.44mm
; top infill extrusion width = 0.40mm
; first layer extrusion width = 0.42mm

M107
;TYPE:Custom
G90 ; use absolute coordinates
M83 ; extruder relative mode
M140 S70 ; set final bed temp
M104 S150 ; set temporary nozzle temp to prevent oozing during homing
G4 S10 ; allow partial nozzle warmup
G28 ; home all axis
G1 Z50 F240
G1 X2 Y10 F3000
M104 S245 ; set final nozzle temp
M190 S70 ; wait for bed temp to stabilize
M109 S245 ; wait for nozzle temp to stabilize
G1 Z0.28 F240
G92 E0
G1 Y140 E10 F1500 ; prime the nozzle
G1 X2.3 F5000
G92 E0
G1 Y10 E10 F1200 ; prime the nozzle
G92 E0
G21 ; set units to millimeters
G90 ; use absolute coordinates
M83 ; use relative distances for extrusion
; Filament gcode
M107
;LAYER_CHANGE
;Z:0.3
;HEIGHT:0.3
;BEFORE_LAYER_CHANGE
G92 E0
;0.3


G1 E-5 F3600
G1 Z.3 F9000
;AFTER_LAYER_CHANGE
;0.3
G1 X94.69 Y93.288
G1 E5 F2400
M204 S500
;TYPE:Skirt/Brim
;WIDTH:0.42
G1 F1200
G1 X95.252 Y92.777 E.0337
G1 X100.133 Y89.471 E.26148
G1 X104.356 Y87.419 E.20825
G1 X109.97 Y85.623 E.26147
G1 X110.72 Y85.497 E.0337
G1 X116.613 Y85.355 E.26147
G1 X121.275 Y85.912 E.20825
G1 X126.969 Y87.436 E.26147
G1 X127.668 Y87.735 E.0337
G1 X132.702 Y90.802 E.26147
G1 X136.323 Y93.791 E.20825
G1 X140.29 Y98.152 E.26147
G1 X140.716 Y98.781 E.0337
G1 X143.293 Y104.083 E.26148
G1 X144.723 Y108.555 E.20825
G1 X145.702 Y114.368 E.26146
G1 X145.72 Y115.127 E.0337
G1 X145.021 Y120.981 E.26148
G1 X143.807 Y125.516 E.20825
G1 X141.488 Y130.936 E.26147
G1 X141.092 Y131.585 E.0337
G1 X137.34 Y136.131 E.26147
G1 X133.867 Y139.29 E.20825
G1 X128.985 Y142.596 E.26147
G1 X128.302 Y142.928 E.0337
G1 X122.687 Y144.724 E.26147
G1 X118.057 Y145.503 E.20825
G1 X112.164 Y145.645 E.26148
G1 X111.41 Y145.555 E.0337
G1 X105.715 Y144.03 E.26147
G1 X101.399 Y142.183 E.20825
G1 X96.364 Y139.116 E.26148
G1 X95.778 Y138.632 E.0337
G1 X91.812 Y134.271 E.26147
G1 X89.18 Y130.383 E.20825
G1 X86.603 Y125.081 E.26147
G1 X86.371 Y124.358 E.0337
G1 X85.393 Y118.544 E.26147
G1 X85.28 Y113.851 E.20825
G1 X85.979 Y107.997 E.26147
G1 X86.175 Y107.264 E.0337
G1 X88.495 Y101.844 E.26148
G1 X90.937 Y97.834 E.20825
G1 X94.651 Y93.334 E.25881
G1 X94.923 Y93.558 F9000
G1 F1200
G1 X95.491 Y93.04 E.03411
G1 X100.288 Y89.791 E.25699
G1 X104.511 Y87.739 E.20825
G1 X110.03 Y85.974 E.25698
G1 X110.779 Y85.847 E.0337
G1 X116.571 Y85.708 E.25698
G1 X121.233 Y86.265 E.20825
G1 X126.83 Y87.763 E.25698
G1 X127.528 Y88.062 E.0337
G1 X132.476 Y91.076 E.25698
G1 X136.097 Y94.065 E.20825
G1 X139.995 Y98.351 E.25698
G1 X140.421 Y98.98 E.0337
G1 X142.954 Y104.191 E.25699
G1 X144.384 Y108.663 E.20825
G1 X145.346 Y114.376 E.25697
G1 X145.365 Y115.136 E.0337
G1 X144.678 Y120.889 E.25699
G1 X143.464 Y125.425 E.20825
G1 X141.184 Y130.751 E.25698
G1 X140.789 Y131.4 E.0337
G1 X137.101 Y135.868 E.25698
G1 X133.627 Y139.027 E.20825
G1 X128.83 Y142.276 E.25698
G1 X128.147 Y142.608 E.0337
G1 X122.628 Y144.373 E.25698
G1 X117.998 Y145.153 E.20825
G1 X112.206 Y145.292 E.25699
G1 X111.452 Y145.202 E.0337
G1 X105.855 Y143.703 E.25698
G1 X101.539 Y141.856 E.20825
G1 X96.591 Y138.841 E.25699
G1 X96.005 Y138.358 E.0337
G1 X92.107 Y134.072 E.25698
G1 X89.474 Y130.184 E.20825
G1 X86.942 Y124.973 E.25698
G1 X86.71 Y124.249 E.0337
G1 X85.748 Y118.536 E.25698
G1 X85.635 Y113.842 E.20825
G1 X86.322 Y108.089 E.25698
G1 X86.519 Y107.355 E.0337
G1 X88.798 Y102.029 E.25699
G1 X91.241 Y98.019 E.20825
G1 X94.885 Y93.604 E.2539
G1 E-3.5 F3600
;WIPE_START
G1 F7200
G1 X95.491 Y93.04 E-.39353
G1 X97.289 Y91.822 E-1.03147
;WIPE_END
G1 E-.075 F3600
G1 X114.589 Y110.766 F9000
G1 E5 F2400
;TYPE:Perimeter
G1 F1200
G1 X115.068 Y111.022 E.02409
G1 X116.736 Y111.221 E.07451
G1 X117.262 Y111.085 E.02409
G1 X117.526 Y111.559 E.02409
G1 X117.565 Y111.592 E.00226
G1 X117.035 Y111.601 E.02353
G1 X114.076 Y111.479 E.13133
G1 X113.656 Y111.439 E.01871
G1 X114.221 Y111.165 E.02783
G1 X114.548 Y110.81 E.02143
G1 X112.185 Y111.941 F9000
G1 F1200
G1 X112.179 Y111.947 E.00035
G1 X113.126 Y111.745 F9000
G1 F1200
G1 X114.052 Y111.834 E.04125
G1 X117.031 Y111.957 E.13223
G1 X118.196 Y111.936 E.05171
G1 X119.105 Y113.118 E.06612
G1 X119.461 Y113.8 E.03413
G1 X119.693 Y114.533 E.03413
G1 X119.794 Y115.296 E.03413
G1 X119.762 Y116.065 E.03413
G1 X119.597 Y116.816 E.03413
G1 X119.303 Y117.528 E.03413
G1 X118.891 Y118.177 E.03413
G1 X118.372 Y118.746 E.03413
G1 X117.763 Y119.215 E.03413
G1 X117.081 Y119.572 E.03413
G1 X116.348 Y119.805 E.03413
G1 X115.585 Y119.908 E.03413
G1 X114.816 Y119.876 E.03413
G1 X114.065 Y119.711 E.03413
G1 X113.353 Y119.419 E.03413
G1 X112.703 Y119.007 E.03413
G1 X112.131 Y118.486 E.03433
G1 X111.654 Y117.862 E.03482
G1 X111.306 Y117.199 E.03324
G1 X111.072 Y116.466 E.03413
G1 X110.969 Y115.703 E.03413
G1 X111 Y114.934 E.03413
G1 X111.164 Y114.182 E.03413
G1 X111.457 Y113.466 E.03433
G1 X111.88 Y112.805 E.03482
G1 X112.866 Y111.72 E.06502
G1 X113.066 Y111.739 E.00892
G1 X113.204 Y112.11 F9000
G1 F1200
G1 X114.028 Y112.189 E.03668
G1 X117.026 Y112.313 E.13313
G1 X118.023 Y112.295 E.04423
G1 X118.804 Y113.31 E.05679
G1 X119.131 Y113.937 E.03137
G1 X119.345 Y114.611 E.03137
G1 X119.438 Y115.312 E.03137
G1 X119.408 Y116.019 E.03137
G1 X119.256 Y116.71 E.03137
G1 X118.986 Y117.363 E.03137
G1 X118.607 Y117.961 E.03137
G1 X118.131 Y118.483 E.03137
G1 X117.57 Y118.915 E.03137
G1 X116.944 Y119.243 E.03137
G1 X116.27 Y119.457 E.03137
G1 X115.569 Y119.551 E.03137
G1 X114.862 Y119.522 E.03137
G1 X114.171 Y119.371 E.03137
G1 X113.517 Y119.102 E.03137
G1 X112.919 Y118.723 E.03137
G1 X112.394 Y118.245 E.03153
G1 X111.955 Y117.67 E.03206
G1 X111.635 Y117.061 E.03052
G1 X111.421 Y116.387 E.03137
G1 X111.326 Y115.686 E.03137
G1 X111.354 Y114.979 E.03137
G1 X111.505 Y114.288 E.03137
G1 X111.774 Y113.631 E.03153
G1 X112.164 Y113.022 E.03206
G1 X113.009 Y112.091 E.05578
G1 X113.145 Y112.104 E.00603
G1 X113.065 Y112.559 F9000
G1 F1200
G1 X113.153 Y112.462 E.00579
G1 X114.003 Y112.544 E.03789
G1 X117.022 Y112.668 E.13402
G1 X117.851 Y112.654 E.03675
G1 X118.503 Y113.502 E.04747
G1 X118.801 Y114.074 E.02861
G1 X118.996 Y114.689 E.02861
G1 X119.081 Y115.328 E.02861
G1 X119.054 Y115.973 E.02861
G1 X118.915 Y116.603 E.02861
G1 X118.669 Y117.199 E.02861
G1 X118.324 Y117.744 E.02861
G1 X117.889 Y118.22 E.02861
G1 X117.378 Y118.614 E.02861
G1 X116.806 Y118.913 E.02861
G1 X116.192 Y119.109 E.02861
G1 X115.552 Y119.194 E.02861
G1 X114.908 Y119.168 E.02861
G1 X114.277 Y119.03 E.02861
G1 X113.681 Y118.785 E.02861
G1 X113.136 Y118.44 E.02861
G1 X112.657 Y118.003 E.02873
G1 X112.256 Y117.478 E.0293
G1 X111.965 Y116.923 E.0278
G1 X111.769 Y116.309 E.02861
G1 X111.682 Y115.669 E.02861
G1 X111.708 Y115.025 E.02861
G1 X111.846 Y114.394 E.02861
G1 X112.091 Y113.795 E.02873
G1 X112.447 Y113.239 E.0293
G1 X113.025 Y112.603 E.03809
G1 X113.361 Y112.84 F9000
G1 F1200
G1 X113.979 Y112.899 E.02753
G1 X117.018 Y113.024 E.13492
G1 X117.678 Y113.012 E.02927
G1 X118.202 Y113.694 E.03814
G1 X118.472 Y114.211 E.02586
G1 X118.648 Y114.766 E.02586
G1 X118.725 Y115.344 E.02585
G1 X118.7 Y115.927 E.02586
G1 X118.575 Y116.496 E.02586
G1 X118.353 Y117.035 E.02585
G1 X118.04 Y117.527 E.02586
G1 X117.647 Y117.958 E.02586
G1 X117.186 Y118.313 E.02585
G1 X116.669 Y118.584 E.02586
G1 X116.114 Y118.76 E.02585
G1 X115.536 Y118.838 E.02586
G1 X114.953 Y118.814 E.02586
G1 X114.384 Y118.689 E.02586
G1 X113.845 Y118.467 E.02585
G1 X113.352 Y118.156 E.02586
G1 X112.92 Y117.762 E.02592
G1 X112.557 Y117.286 E.02654
G1 X112.294 Y116.786 E.02509
G1 X112.117 Y116.23 E.02585
G1 X112.039 Y115.653 E.02586
G1 X112.062 Y115.07 E.02586
G1 X112.186 Y114.501 E.02586
G1 X112.408 Y113.96 E.02592
G1 X112.73 Y113.456 E.02654
G1 X113.301 Y112.834 E.03744
G1 X113.439 Y113.204 F9000
;TYPE:External perimeter
G1 F1200
G1 X113.954 Y113.254 E.02295
G1 X117.014 Y113.38 E.13582
G1 X117.505 Y113.371 E.02179
G1 X117.901 Y113.886 E.02882
G1 X118.142 Y114.348 E.0231
G1 X118.299 Y114.844 E.0231
G1 X118.368 Y115.36 E.0231
G1 X118.346 Y115.881 E.0231
G1 X118.234 Y116.389 E.0231
G1 X118.036 Y116.871 E.0231
G1 X117.757 Y117.31 E.0231
G1 X117.406 Y117.695 E.0231
G1 X116.993 Y118.013 E.0231
G1 X116.532 Y118.254 E.0231
G1 X116.035 Y118.412 E.0231
G1 X115.519 Y118.481 E.0231
G1 X114.999 Y118.46 E.0231
G1 X114.49 Y118.348 E.0231
G1 X114.009 Y118.15 E.0231
G1 X113.569 Y117.872 E.0231
G1 X113.183 Y117.521 E.02312
G1 X112.858 Y117.095 E.02378
G1 X112.624 Y116.648 E.02237
G1 X112.465 Y116.152 E.0231
G1 X112.396 Y115.636 E.0231
G1 X112.416 Y115.115 E.0231
G1 X112.527 Y114.607 E.0231
G1 X112.725 Y114.124 E.02312
G1 X113.014 Y113.672 E.02378
G1 X113.399 Y113.249 E.0254
G1 X113.551 Y112.82 F9000
G1 X110.791 Y114.223
;TYPE:Perimeter
G1 F1200
G1 X110.78 Y114.269 E.00211
G1 X110.833 Y116.932 F9000
G1 F1200
G1 X110.841 Y116.91 E.00102
G1 X119.445 Y117.968 F9000
G1 F1200
G1 X119.446 Y117.967 E.00001
G1 X119.336 Y112.835 F9000
G1 F1200
G1 X119.297 Y112.785 E.0028
G1 X119.314 Y112.79 E.00081
G1 X119.714 Y112.527 F9000
G1 F1200
G1 X119.733 Y112.53 E.00083
G1 X119.693 Y112.696 E.00757
G1 X119.686 Y113.368 E.02982
G1 X120.133 Y114.768 E.06518
G1 X120.539 Y115.267 E.02851
G1 X120.635 Y115.35 E.00565
G1 X120.543 Y115.438 E.00565
G1 X120.162 Y115.956 E.02851
G1 X119.762 Y117.449 E.06857
G1 X119.833 Y118.088 E.02851
G1 X119.869 Y118.21 E.00565
G1 X119.744 Y118.234 E.00564
G1 X119.144 Y118.464 E.02851
G1 X118 Y119.504 E.06857
G1 X117.715 Y120.08 E.02851
G1 X117.679 Y120.202 E.00565
G1 X117.561 Y120.155 E.00565
G1 X116.932 Y120.023 E.02851
G1 X115.407 Y120.28 E.06857
G1 X114.856 Y120.61 E.02852
G1 X114.759 Y120.693 E.00564
G1 X114.66 Y120.554 E.00757
G1 X114.157 Y120.109 E.02982
G1 X112.806 Y119.531 E.06517
G1 X112.164 Y119.51 E.02851
G1 X112.038 Y119.529 E.00565
G1 X112.032 Y119.401 E.00564
G1 X111.89 Y118.774 E.02851
G1 X111.023 Y117.494 E.06857
G1 X110.494 Y117.13 E.02851
G1 X110.378 Y117.077 E.00565
G1 X110.441 Y116.967 E.00564
G1 X110.661 Y116.363 E.02852
G1 X110.624 Y114.817 E.06857
G1 X110.375 Y114.224 E.02851
G1 X110.307 Y114.117 E.00565
G1 X110.42 Y114.059 E.00564
G1 X110.931 Y113.669 E.02851
G1 X111.735 Y112.349 E.06857
G1 X111.847 Y111.716 E.02851
G1 X111.847 Y111.589 E.00565
G1 X111.974 Y111.601 E.00565
G1 X112.615 Y111.55 E.02851
G1 X114.005 Y110.874 E.06857
G1 X114.441 Y110.402 E.02851
G1 X114.51 Y110.295 E.00565
G1 X114.61 Y110.373 E.00565
G1 X115.177 Y110.677 E.02851
G1 X116.712 Y110.86 E.06857
G1 X117.334 Y110.699 E.02851
G1 X117.45 Y110.646 E.00565
G1 X117.491 Y110.766 E.00565
G1 X117.804 Y111.328 E.02851
G1 X118.996 Y112.312 E.06857
G1 X119.655 Y112.519 E.03063
G1 X119.611 Y112.139 F9000
G1 F1200
G1 X120.09 Y112.222 E.02155
G1 X120.193 Y112.219 E.00457
G1 X120.151 Y112.313 E.00457
G1 X120.048 Y112.74 E.01949
G1 X120.042 Y113.315 E.02547
G1 X120.452 Y114.596 E.05966
G1 X120.795 Y115.018 E.02416
G1 X121.102 Y115.284 E.01798
G1 X121.19 Y115.337 E.00457
G1 X121.104 Y115.394 E.00457
G1 X120.811 Y115.674 E.01799
G1 X120.488 Y116.112 E.02416
G1 X120.123 Y117.476 E.06262
G1 X120.183 Y118.017 E.02416
G1 X120.298 Y118.406 E.01799
G1 X120.344 Y118.499 E.00457
G1 X120.24 Y118.5 E.00457
G1 X119.842 Y118.577 E.01798
G1 X119.334 Y118.772 E.02416
G1 X118.289 Y119.722 E.06262
G1 X118.047 Y120.21 E.02416
G1 X117.933 Y120.599 E.01799
G1 X117.922 Y120.701 E.00457
G1 X117.834 Y120.647 E.00457
G1 X117.458 Y120.496 E.01799
G1 X116.925 Y120.385 E.02416
G1 X115.532 Y120.619 E.06262
G1 X115.065 Y120.899 E.02416
G1 X114.759 Y121.165 E.01798
G1 X114.694 Y121.245 E.00457
G1 X114.649 Y121.152 E.00457
G1 X114.394 Y120.794 E.01949
G1 X113.964 Y120.413 E.02547
G1 X112.728 Y119.884 E.05965
G1 X112.184 Y119.867 E.02416
G1 X111.782 Y119.925 E.01799
G1 X111.684 Y119.957 E.00457
G1 X111.697 Y119.855 E.00457
G1 X111.678 Y119.45 E.01799
G1 X111.558 Y118.918 E.02416
G1 X110.766 Y117.749 E.06262
G1 X110.318 Y117.441 E.02416
G1 X109.949 Y117.272 E.01798
G1 X109.849 Y117.246 E.00457
G1 X109.915 Y117.167 E.00457
G1 X110.118 Y116.816 E.01798
G1 X110.304 Y116.304 E.02416
G1 X110.27 Y114.893 E.06262
G1 X110.06 Y114.391 E.02416
G1 X109.84 Y114.049 E.01799
G1 X109.77 Y113.974 E.00457
G1 X109.869 Y113.943 E.00457
G1 X110.229 Y113.757 E.01798
G1 X110.662 Y113.427 E.02416
G1 X111.397 Y112.222 E.06262
G1 X111.491 Y111.685 E.02416
G1 X111.491 Y111.28 E.01798
G1 X111.473 Y111.178 E.00457
G1 X111.573 Y111.206 E.00457
G1 X111.976 Y111.244 E.01799
G1 X112.519 Y111.201 E.02416
G1 X113.789 Y110.584 E.06262
G1 X114.159 Y110.183 E.02416
G1 X114.378 Y109.842 E.01798
G1 X114.418 Y109.747 E.00457
G1 X114.486 Y109.824 E.00457
G1 X114.805 Y110.075 E.01799
G1 X115.285 Y110.332 E.02416
G1 X116.687 Y110.499 E.06262
G1 X117.214 Y110.362 E.02416
G1 X117.583 Y110.194 E.01799
G1 X117.668 Y110.135 E.00457
G1 X117.684 Y110.237 E.00457
G1 X117.817 Y110.62 E.01799
G1 X118.082 Y111.096 E.02416
G1 X119.171 Y111.995 E.06262
G1 X119.554 Y112.12 E.01789
G1 X119.718 Y111.8 F9000
G1 F1200
G1 X120.109 Y111.866 E.0176
G1 X120.453 Y111.855 E.01523
G1 X120.788 Y111.784 E.01522
G1 X120.901 Y111.739 E.00536
G1 X120.817 Y111.827 E.00536
G1 X120.627 Y112.113 E.01523
G1 X120.49 Y112.427 E.01523
G1 X120.403 Y112.785 E.01631
G1 X120.398 Y113.261 E.02112
G1 X120.77 Y114.423 E.05413
G1 X121.052 Y114.77 E.0198
G1 X121.311 Y114.995 E.01522
G1 X121.605 Y115.171 E.01522
G1 X121.926 Y115.293 E.01523
G1 X122.045 Y115.316 E.00536
G1 X121.927 Y115.345 E.00536
G1 X121.613 Y115.482 E.01523
G1 X121.327 Y115.673 E.01522
G1 X121.079 Y115.91 E.01523
G1 X120.814 Y116.269 E.0198
G1 X120.484 Y117.503 E.05667
G1 X120.533 Y117.947 E.0198
G1 X120.63 Y118.276 E.01523
G1 X120.783 Y118.584 E.01523
G1 X120.986 Y118.86 E.01522
G1 X121.074 Y118.944 E.00536
G1 X120.959 Y118.904 E.00536
G1 X120.621 Y118.85 E.01522
G1 X120.277 Y118.856 E.01522
G1 X119.94 Y118.921 E.01522
G1 X119.523 Y119.08 E.01981
G1 X118.578 Y119.94 E.05667
G1 X118.38 Y120.34 E.0198
G1 X118.283 Y120.669 E.01523
G1 X118.245 Y121.01 E.01522
G1 X118.267 Y121.353 E.01522
G1 X118.295 Y121.47 E.00536
G1 X118.221 Y121.375 E.00536
G1 X117.965 Y121.146 E.01522
G1 X117.673 Y120.966 E.01523
G1 X117.354 Y120.838 E.01523
G1 X116.917 Y120.747 E.0198
G1 X115.658 Y120.959 E.05667
G1 X115.274 Y121.188 E.01981
G1 X115.015 Y121.413 E.01522
G1 X114.799 Y121.68 E.01522
G1 X114.632 Y121.98 E.01523
G1 X114.592 Y122.094 E.00536
G1 X114.581 Y121.973 E.00536
G1 X114.489 Y121.643 E.01522
G1 X114.342 Y121.333 E.01523
G1 X114.128 Y121.033 E.01631
G1 X113.772 Y120.718 E.02112
G1 X112.65 Y120.237 E.05413
G1 X112.203 Y120.223 E.0198
G1 X111.864 Y120.272 E.01523
G1 X111.538 Y120.379 E.01522
G1 X111.235 Y120.541 E.01523
G1 X111.14 Y120.616 E.00536
G1 X111.195 Y120.509 E.00536
G1 X111.297 Y120.181 E.01523
G1 X111.341 Y119.84 E.01522
G1 X111.324 Y119.498 E.01523
G1 X111.226 Y119.062 E.0198
G1 X110.509 Y118.004 E.05667
G1 X110.142 Y117.751 E.0198
G1 X109.829 Y117.609 E.01522
G1 X109.497 Y117.522 E.01523
G1 X109.155 Y117.495 E.01522
G1 X109.035 Y117.507 E.00536
G1 X109.139 Y117.446 E.00536
G1 X109.402 Y117.226 E.01523
G1 X109.623 Y116.963 E.01522
G1 X109.794 Y116.665 E.01522
G1 X109.947 Y116.246 E.01981
G1 X109.916 Y114.968 E.05667
G1 X109.744 Y114.557 E.0198
G1 X109.558 Y114.268 E.01523
G1 X109.325 Y114.016 E.01523
G1 X109.052 Y113.808 E.01522
G1 X108.944 Y113.753 E.00536
G1 X109.065 Y113.758 E.00536
G1 X109.406 Y113.715 E.01523
G1 X109.733 Y113.613 E.01522
G1 X110.038 Y113.455 E.01522
G1 X110.394 Y113.185 E.0198
G1 X111.058 Y112.094 E.05667
G1 X111.136 Y111.654 E.0198
G1 X111.136 Y111.311 E.01522
G1 X111.076 Y110.973 E.01523
G1 X110.959 Y110.65 E.01523
G1 X110.898 Y110.546 E.00536
G1 X110.997 Y110.616 E.00536
G1 X111.307 Y110.763 E.01522
G1 X111.637 Y110.855 E.01522
G1 X111.979 Y110.887 E.01523
G1 X112.424 Y110.852 E.0198
G1 X113.573 Y110.293 E.05667
G1 X113.876 Y109.965 E.0198
G1 X114.062 Y109.676 E.01522
G1 X114.194 Y109.36 E.01523
G1 X114.27 Y109.025 E.01522
G1 X114.276 Y108.904 E.00536
G1 X114.321 Y109.016 E.00536
G1 X114.502 Y109.308 E.01522
